public/images/header-new-telegram.svg

<svg width="20" height="20" viewBox="0 0 20 20" fill="none" xmlns="http://www.w3.org/2000/svg">
<g id="Frame 1966">
<path id="Telegram" fill-rule="evenodd" clip-rule="evenodd" d="M1.3743 8.74917C6.74306 6.20869 10.3232 4.53424 12.1144 3.72502C17.229 1.41494 18.2916 1.01333 18.9841 1.00013C19.1366 0.997331 19.4769 1.03813 19.6979 1.23254C19.8843 1.39654 19.9355 1.61855 19.9602 1.77416C19.9848 1.92976 20.0154 2.28457 19.9911 2.56138C19.7141 5.72388 18.5148 13.3985 17.9045 16.9406C17.6463 18.4395 17.138 18.9419 16.6459 18.9911C15.5763 19.0979 14.7645 18.2235 13.7284 17.4862C12.1074 16.3322 11.1917 15.6142 9.6186 14.4882C7.80016 13.1869 8.97918 12.4717 10.0153 11.3029C10.2864 10.9968 14.9988 6.3423 15.0898 5.91988C15.1012 5.86708 15.1119 5.67028 15.0039 5.56627C14.896 5.46227 14.7373 5.49787 14.6227 5.52627C14.4603 5.56627 11.8709 7.42513 6.85466 11.1024C6.11985 11.6505 5.45391 11.9177 4.85759 11.9037C4.20012 11.8881 2.93528 11.5001 1.99494 11.168C0.8417 10.7608 -0.07507 10.5456 0.00485732 9.85401C0.0464784 9.494 0.503206 9.12558 1.37504 8.74917H1.3743Z" fill="#009CD9"/>
</g>
</svg>

<svg width="20" height="20" fill="none" xmlns="http://www.w3.org/2000/svg"><path fill-rule="evenodd" clip-rule="evenodd" d="M1.374 8.75c5.37-2.541 8.95-4.216 10.74-5.025 5.115-2.31 6.178-2.712 6.87-2.725.153-.003.493.038.714.233.186.164.238.386.262.541.025.156.055.51.031.787-.277 3.163-1.476 10.838-2.087 14.38-.258 1.498-.766 2-1.258 2.05-1.07.107-1.882-.767-2.918-1.505-1.62-1.154-2.536-1.872-4.11-2.998-1.818-1.301-.639-2.016.397-3.185.271-.306 4.984-4.96 5.075-5.383.011-.053.022-.25-.086-.354-.108-.104-.267-.068-.381-.04-.163.04-2.752 1.9-7.768 5.576-.735.548-1.401.816-1.997.802-.658-.016-1.923-.404-2.863-.736-1.153-.407-2.07-.622-1.99-1.314.041-.36.498-.728 1.37-1.105z" fill="#009CD9"/></svg>
